X: 9830
T: Denis O'Keeffe's
R: polka
M: 2/4
K: Dmajor
|:f2 f>e|dg B2|A/B/c/d/ eA|fe/d/ cA|
[F2f2] f>e|dg [B2g2]|A/B/c/d/ eA|d2 de:|
fa gf|ed e2|A/B/c/d/ eA|fe/d/ cA|
fa gf|ed [e2g2]|A/B/c/d/ eA|d2 de:|

